www/assets/icons/satellite_alt.svg

<svg width="24" height="24" viewBox="0 0 24 24" xmlns="http://www.w3.org/2000/svg" fill='currentColor'><g clip-path="url(#clip0_1616_2577)"><path d="M15.9375 1.0918L12.7575 4.2718C11.9775 5.0518 11.9775 6.3218 12.7575 7.1018L13.9975 8.3418L13.2875 9.0518L12.0475 7.8018C11.2675 7.0218 9.9975 7.0218 9.2175 7.8018L7.7975 9.2218C7.0175 10.0018 7.0175 11.2718 7.7975 12.0518L9.0375 13.2918L8.3275 14.0018L7.0975 12.7518C6.3175 11.9718 5.0475 11.9718 4.2675 12.7518L1.0875 15.9318C0.307502 16.7118 0.307502 17.9818 1.0875 18.7618L4.6275 22.3018C5.4075 23.0818 6.6775 23.0818 7.4575 22.3018L10.6375 19.1218C11.4175 18.3418 11.4175 17.0718 10.6375 16.2918L9.3975 15.0518L10.1075 14.3418L11.3475 15.5818C12.1275 16.3618 13.3975 16.3618 14.1775 15.5818L15.5875 14.1718C16.3675 13.3918 16.3675 12.1218 15.5875 11.3418L14.3375 10.1018L15.0475 9.3918L16.2875 10.6318C17.0675 11.4118 18.3375 11.4118 19.1175 10.6318L22.2975 7.4518C23.0775 6.6718 23.0775 5.4018 22.2975 4.6218L18.7575 1.0818C17.9775 0.301803 16.7175 0.301803 15.9375 1.0918ZM7.0975 19.8218L6.0375 20.8818L2.4975 17.3518L3.5575 16.2918L7.0975 19.8218ZM9.2175 17.7018L8.1575 18.7618L4.6175 15.2218L5.6775 14.1618L9.2175 17.7018ZM18.7575 8.1618L17.6975 9.2218L14.1575 5.6818L15.2175 4.6218L18.7575 8.1618ZM20.8775 6.0418L19.8175 7.1018L16.2775 3.5618L17.3475 2.5018L20.8775 6.0418ZM14.4975 21.5018V23.5018C19.4675 23.5018 23.4975 19.4718 23.4975 14.5018H21.4975C21.4975 18.3718 18.3675 21.5018 14.4975 21.5018ZM14.4975 17.5018V19.5018C17.2575 19.5018 19.4975 17.2618 19.4975 14.5018H17.4975C17.4975 16.1618 16.1575 17.5018 14.4975 17.5018Z"/></g><defs><clipPath id="clip0_1616_2577"><rect width="24" height="24"/></clipPath></defs></svg>

<svg xmlns="http://www.w3.org/2000/svg" width="24" height="24" viewBox="0 0 24 24" fill='currentColor'><g clip-path="url(#a)"><path d="m15.938 1.092-3.18 3.18c-.78.78-.78 2.05 0 2.83l1.24 1.24-.71.71-1.24-1.25c-.78-.78-2.05-.78-2.83 0l-1.42 1.42c-.78.78-.78 2.05 0 2.83l1.24 1.24-.71.71-1.23-1.25c-.78-.78-2.05-.78-2.83 0l-3.18 3.18c-.78.78-.78 2.05 0 2.83l3.54 3.54c.78.78 2.05.78 2.83 0l3.18-3.18c.78-.78.78-2.05 0-2.83l-1.24-1.24.71-.71 1.24 1.24c.78.78 2.05.78 2.83 0l1.41-1.41c.78-.78.78-2.05 0-2.83l-1.25-1.24.71-.71 1.24 1.24c.78.78 2.05.78 2.83 0l3.18-3.18c.78-.78.78-2.05 0-2.83l-3.54-3.54c-.78-.78-2.04-.78-2.82.01m-8.84 18.73-1.06 1.06-3.54-3.53 1.06-1.06zm2.12-2.12-1.06 1.06-3.54-3.54 1.06-1.06zm9.54-9.54-1.06 1.06-3.54-3.54 1.06-1.06zm2.12-2.12-1.06 1.06-3.54-3.54 1.07-1.06zm-6.38 15.46v2a9 9 0 0 0 9-9h-2c0 3.87-3.13 7-7 7m0-4v2c2.76 0 5-2.24 5-5h-2c0 1.66-1.34 3-3 3"/></g><defs><clipPath id="a"><path d="M0 0h24v24H0z"/></clipPath></defs></svg>
